X: 3132
T: Beauties Of The Ballroom
R: jig
M: 6/8
K: Aminor
efe edc|BcA ^G2E|ABc dBG|1 A3 Acd:|2 A3 A2||
B|c2c' c'ba|gea g2e|cBc age|dec B2G|cBc dcd|
edc BAG|Afe dcB|1 A3 A2:|2 A3 a3||
A,B,A, A,B,D|E3 G3|G,B,G, G,2B,|D3 E3|A,B,A, A,B,D|
E3 A3|G/F/ED G2B,|1 A,3 A3:|2 A,3 A,3||

